X: 1
T: Johnny Henry's
M: 6/8
L: 1/8
R: jig
K: Dmaj
|:B|AFA BAF|Adf a2f|gag ~f3|egf edB|
~A3 BAF|Adf a2f|gag ~f3|efe d2:|
B|Adf ~a3|baf a2f|gag ~f3|egf edB|
Adf ~a3|baf a2f|gag ~f3|efe d2B|
Adf ~a3|baf a2f|gag ~f3|egf edB|
~A3 BAF|Adf a2f|gag ~f3|efe d2||
